X:3414
T:La Marine (G. Brassens)
O:england
C:B. Loffet
M:3/4
L:1/4
K:C
AB|"A"c3|Aed|"G"B3-|BcB|"F"A2G|"G"F2G|"A"A3-|A:|
cd|e3|cde|"F"f3-|fde|"G"f2f|g2f|"C"e3-|ecd|
"A"e3|cfe|"G"d3-|d3|"F"ccc|cdc|"E"Bfe|dcB|]


